static/Icons/calendar-2.svg

<svg fill="none" height="24" viewBox="0 0 24 24" width="24" xmlns="http://www.w3.org/2000/svg"><g fill="#292d32"><path d="m16.7502 3.56v-1.56c0-.41-.34-.75-.75-.75s-.75.34-.75.75v1.5h-6.49998v-1.5c0-.41-.34-.75-.75-.75s-.75.34-.75.75v1.56c-2.7.25-4.00999 1.86-4.20999 4.25-.02.29.22.53.5.53h16.91997c.29 0 .53-.25.5-.53-.2-2.39-1.51-4-4.21-4.25z"/><path d="m20 9.83984c.55 0 1 .44996 1 .99996v6.16c0 3-1.5 5-5 5h-8c-3.5 0-5-2-5-5v-6.16c0-.55.45-.99996 1-.99996z" opacity=".4"/><path d="m8.5 14.9989c-.13 0-.26-.03-.38-.08s-.22999-.12-.32999-.21c-.09-.1-.16002-.21-.21002-.33s-.07999-.25-.07999-.38.02999-.26.07999-.38.12002-.23.21002-.33c.1-.09.20999-.16.32999-.21.24-.1.52-.1.76 0 .12.05.22999.12.32999.21.09.1.16002.21.21002.33s.07999.25.07999.38-.02999.26-.07999.38-.12002.23-.21002.33c-.1.09-.20999.16-.32999.21s-.25.08-.38.08z"/><path d="m12 14.9986c-.13 0-.26-.03-.38-.08s-.23-.12-.33-.21c-.18-.19-.29-.45-.29-.71s.11-.52.29-.71c.1-.09.21-.16.33-.21.24-.11.52-.11.76 0 .12.05.23.12.33.21.18.19.29.45.29.71s-.11.52-.29.71c-.1.09-.21.16-.33.21s-.25.08-.38.08z"/><path d="m8.5 18.4989c-.13 0-.26-.03-.38-.08s-.22999-.12-.32999-.21c-.18-.19-.29001-.45-.29001-.71s.11001-.52.29001-.71c.1-.09.20999-.16.32999-.21.24-.1.52-.1.76 0 .12.05.22999.12.32999.21.18.19.29001.45.29001.71s-.11001.52-.29001.71c-.1.09-.20999.16-.32999.21s-.25.08-.38.08z"/></g></svg>

<svg width="24" height="24" viewBox="0 0 24 24" fill="none" xmlns="http://www.w3.org/2000/svg">
<path d="M16.7502 3.56V2C16.7502 1.59 16.4102 1.25 16.0002 1.25C15.5902 1.25 15.2502 1.59 15.2502 2V3.5H8.75022V2C8.75022 1.59 8.41022 1.25 8.00022 1.25C7.59022 1.25 7.25022 1.59 7.25022 2V3.56C4.55022 3.81 3.24023 5.42 3.04023 7.81C3.02023 8.1 3.26023 8.34 3.54023 8.34H20.4602C20.7502 8.34 20.9902 8.09 20.9602 7.81C20.7602 5.42 19.4502 3.81 16.7502 3.56Z" fill="#292D32"/>
<path opacity="0.4" d="M20 9.83984C20.55 9.83984 21 10.2898 21 10.8398V16.9998C21 19.9998 19.5 21.9998 16 21.9998H8C4.5 21.9998 3 19.9998 3 16.9998V10.8398C3 10.2898 3.45 9.83984 4 9.83984H20Z" fill="#292D32"/>
<path d="M8.5 14.9989C8.37 14.9989 8.24 14.9689 8.12 14.9189C8 14.8689 7.89001 14.7989 7.79001 14.7089C7.70001 14.6089 7.62999 14.4989 7.57999 14.3789C7.52999 14.2589 7.5 14.1289 7.5 13.9989C7.5 13.8689 7.52999 13.7389 7.57999 13.6189C7.62999 13.4989 7.70001 13.3889 7.79001 13.2889C7.89001 13.1989 8 13.1289 8.12 13.0789C8.36 12.9789 8.64 12.9789 8.88 13.0789C9 13.1289 9.10999 13.1989 9.20999 13.2889C9.29999 13.3889 9.37001 13.4989 9.42001 13.6189C9.47001 13.7389 9.5 13.8689 9.5 13.9989C9.5 14.1289 9.47001 14.2589 9.42001 14.3789C9.37001 14.4989 9.29999 14.6089 9.20999 14.7089C9.10999 14.7989 9 14.8689 8.88 14.9189C8.76 14.9689 8.63 14.9989 8.5 14.9989Z" fill="#292D32"/>
<path d="M12 14.9986C11.87 14.9986 11.74 14.9686 11.62 14.9186C11.5 14.8686 11.39 14.7986 11.29 14.7086C11.11 14.5186 11 14.2586 11 13.9986C11 13.7386 11.11 13.4786 11.29 13.2886C11.39 13.1986 11.5 13.1286 11.62 13.0786C11.86 12.9686 12.14 12.9686 12.38 13.0786C12.5 13.1286 12.61 13.1986 12.71 13.2886C12.89 13.4786 13 13.7386 13 13.9986C13 14.2586 12.89 14.5186 12.71 14.7086C12.61 14.7986 12.5 14.8686 12.38 14.9186C12.26 14.9686 12.13 14.9986 12 14.9986Z" fill="#292D32"/>
<path d="M8.5 18.4989C8.37 18.4989 8.24 18.4689 8.12 18.4189C8 18.3689 7.89001 18.2989 7.79001 18.2089C7.61001 18.0189 7.5 17.7589 7.5 17.4989C7.5 17.2389 7.61001 16.9789 7.79001 16.7889C7.89001 16.6989 8 16.6289 8.12 16.5789C8.36 16.4789 8.64 16.4789 8.88 16.5789C9 16.6289 9.10999 16.6989 9.20999 16.7889C9.38999 16.9789 9.5 17.2389 9.5 17.4989C9.5 17.7589 9.38999 18.0189 9.20999 18.2089C9.10999 18.2989 9 18.3689 8.88 18.4189C8.76 18.4689 8.63 18.4989 8.5 18.4989Z" fill="#292D32"/>
</svg>
